X: 10872
T: THE RINK HORNPIPE
C: Composed by W.B. laybourn
R: hornpipe
B: K\"ohler's Violin Repository, v.1, 1885 p.87 #2
F: http://www.archive.org/details/klersviolinrepos01edin
Z: 2012 John Chambers <jc:trillian.mit.edu>
M: C|
L: 1/8
K: E
u(B>G) |\
E3(F E>G)B>G | (A>B)c>d e2d>c | B3(c B>d)f>d | (e>f)g>a b2B>G |
E3(F E>G)B>G | (A>B)c>d e2d>c | B3(e f>e)g>e | f2e2e2 :||: u(g>a) |
(b>g)e>c B2f>g | (a>f)c>A F2f>e | (d>e)f>g (a>g)f>e | (d>b)c>^a b2g=a |
(b>g)e>c B2f>g | (a>f)c>A F2f>e | (d>e)^e>f (g>B)a>A | f2e2e2 :|

%%sep 2 1 500

